X: 25539
T: Marianne's
R: reel
M: 4/4
K: Amixolydian
|:AABA eAAB|efgf e2 ef|gfed eAAB|gBBA GABG|
AABA eAAB|efgf e2 ef|gfed eAAB|GBgB A3 B:|
|:Aaag edBd|eaag e2 dB|Aaag edef|gBBA GABG|
Aaag edBd|eaag e2 eg|agea gedB|GBgB A3 B:|

